!!!!SEGMENT: pl-cz--ii-188--002_orllowski-michall--missa-ex-g-gloria.krn
!!!cenid: 17xx:1006
!!!COM: Orłowski, Michał
!!!COM-rismid: pe30020336
!!!CDT: ~1700-~1799
!!!CNT:
!!!OPR: Missa ex G
!!!OTL: Gloria
!!!OMV: 002
!!!PDT:
!!!AGN: Sacred; Mass
!!!SMS-siglum: PL-CZ
!!!SMS-shelfmark: II-188
!!!SMS-shelfwork: 001-002 M
!!!SMS-variant:
!!!SMS-altvar:
!!!NIFC-rismid: 300000944
!!!URL-scan: http://repozytorium.nifc.pl/skany/pl-cz-nut--ii-188
!!!ONB-nifc: UWAGA: części Mszy: Kyrie, Gloria, Laudamus, Domine deus, Qui tollis, Quoniam, Cum santo, Patrem, Et incarnaus, Et resurrexit, Sanctus, Benedictus, Agnus dei. UWAGA: w niektórych głosach części zapisane w innej kolejności
!!!key:
**kern	**dynam	**kern	**dynam	**kern	**dynam	**kern	**text	**kern	**text	**kern	**text	**kern	**kern
*part8	*part8	*part7	*part7	*part6	*part6	*part5	*part5	*part4	*part4	*part3	*part3	*part2	*part1
*staff8	*	*staff7	*	*staff6	*	*staff5	*staff5	*staff4	*staff4	*staff3	*staff3	*staff2	*staff1
*group	*group	*group3	*group3	*group3	*group3	*group2	*group2	*group2	*group2	*group2	*group2	*group1	*group1
*Iempty	*	*Ivioln	*	*Ivioln	*	*Iempty	*	*Ivox	*	*Ivox	*	*Iempty	*Iempty
*I"Fundamento.	*	*I"Violino Secundo.	*	*I"Violino Primo.	*	*I"Baſso.	*	*I"Canto 2do:	*	*I"Canto 1mo:	*	*I"Cornu 2do in G.	*I"Cornu 1mo in G.
*I'org	*	*I'vl 2	*	*I'vl 1	*	*I'B	*	*I'S 2	*	*I'S 1	*	*I'cor 2	*I'cor 1
*clefF4	*	*clefG2	*	*clefG2	*	*clefF4	*	*clefC1	*	*clefC1	*	*clefG2	*clefG2
*	*	*	*	*	*	*	*	*	*	*	*	*ITrd3c5	*ITrd3c5
*k[f#]	*	*k[f#]	*	*k[f#]	*	*k[f#]	*	*k[f#]	*	*k[f#]	*	*k[f#]	*k[f#]
*G:	*	*G:	*	*G:	*	*G:	*	*G:	*	*G:	*	*G:	*G:
*M3/4	*	*M3/4	*	*M3/4	*	*M3/4	*	*M3/4	*	*M3/4	*	*M3/4	*M3/4
=1	=1	=1	=1	=1	=1	=1	=1	=1	=1	=1	=1	=1	=1
*all\right	*	*	*	*	*	*	*	*all\right	*	*	*	*	*all\right
!LO:TX:t=P:problem=mixed beam	!	!	!	!	!	!	!	!	!	!	!	!	!
!LO:TX:a:i:t=allo.	!	!LO:TX:a:i:t=allo.	!	!LO:TX:a:i:t=allo.	!	!LO:TX:a:i:t=allo&colon;	!	!LO:TX:a:i:t=allo.	!	!LO:TX:a:i:t=allo	!	!LO:TX:a:i:t=allo	!LO:TX:a:i:t=allo.
8GG/L	.	16B/LL	.	16g/LL	.	8.G\	Glo-	8.g/	Glo-	8.g/	Glo-	8.B/L	8.g\L
.	.	16B/	.	16g/	.	.	.	.	.	.	.	.	.
8G\	.	16B/	.	16g/	.	.	.	.	.	.	.	.	.
.	.	16B/JJ	.	16g/JJ	.	16G\	-ri-	16g/	-ri-	16g/	-ri-	16B/Jk	16g\Jk
*	*	*tremolo	*	*	*	*	*	*	*	*	*	*	*
*	*	*	*	*tremolo	*	*	*	*	*	*	*	*	*
8GG/	.	16B/LL	.	16g/LL	.	4G\	-a	4g/	-a	4g/	-a	4B/	4g\
.	.	16B/	.	16g/	.	.	.	.	.	.	.	.	.
8G\	.	16B/	.	16g/	.	.	.	.	.	.	.	.	.
.	.	16B/JJ	.	16g/JJ	.	.	.	.	.	.	.	.	.
8GG/	.	16B/LL	.	16g/LL	.	4r	.	4r	.	4r	.	4r	4r
.	.	16B/	.	16g/	.	.	.	.	.	.	.	.	.
8G\J	.	16B/	.	16g/	.	.	.	.	.	.	.	.	.
.	.	16B/JJ	.	16g/JJ	.	.	.	.	.	.	.	.	.
=2	=2	=2	=2	=2	=2	=2	=2	=2	=2	=2	=2	=2	=2
*	*	*	*	*	*	*	*	*	*	*	*	*2\right	*
*tremolo	*	*	*	*2\right	*	*	*ij	*	*ij	*	*ij	*all\right	*
!LO:TX:t=P:problem=mixed beam	!	!	!	!	!	!	!	!	!	!	!	!	!
8GG/L	.	16g/LL	.	16b\LL	.	8.G\	Glo-	8.g/	Glo-	8.b\	Glo-	8.g\L	8.b\L
.	.	16g/	.	16b\	.	.	.	.	.	.	.	.	.
8G\	.	16g/	.	16b\	.	.	.	.	.	.	.	.	.
.	.	16g/	.	16b\	.	16G\	-ri-	16g/	-ri-	16b\	-ri-	16g\Jk	16b\Jk
8GG/	.	16g/	.	16b\	.	4G\	-a	4g/	-a	4b\	-a	4g\	4b\
.	.	16g/	.	16b\	.	.	.	.	.	.	.	.	.
8G\	.	16g/	.	16b\	.	.	.	.	.	.	.	.	.
.	.	16g/	.	16b\	.	.	.	.	.	.	.	.	.
8GG/	.	16g/	.	16b\	.	4r	.	4r	.	4r	.	4r	4r
.	.	16g/	.	16b\	.	.	.	.	.	.	.	.	.
8G\J	.	16g/	.	16b\	.	.	.	.	.	.	.	.	.
.	.	16g/JJ	.	16b\JJ	.	.	.	.	.	.	.	.	.
=3	=3	=3	=3	=3	=3	=3	=3	=3	=3	=3	=3	=3	=3
*	*	*2\right	*	*	*	*	*	*	*	*all\right	*	*	*
!LO:TX:t=P:problem=mixed beam	!	!	!	!	!	!	!	!	!	!	!	!	!
8GG/L	.	16b\LL	.	16dd\LL	.	8.G\	Glo-	8.b\	Glo-	8.dd\	Glo-	8.b\L	8.dd\L
.	.	16b\	.	16dd\	.	.	.	.	.	.	.	.	.
8G\	.	16b\	.	16dd\	.	.	.	.	.	.	.	.	.
.	.	16b\	.	16dd\	.	16G\	-ri-	16b\	-ri-	16dd\	-ri-	16b\Jk	16dd\Jk
8GG/	.	16b\	.	16dd\	.	4G\	-a	4b\	-a	4dd\	-a	4b\	4dd\
.	.	16b\	.	16dd\	.	.	.	.	.	.	.	.	.
8G\	.	16b\	.	16dd\	.	.	.	.	.	.	.	.	.
.	.	16b\	.	16dd\	.	.	.	.	.	.	.	.	.
8GG/	.	16b\	.	16dd\	.	4r	.	4r	.	4r	.	4r	4r
.	.	16b\	.	16dd\	.	.	.	.	.	.	.	.	.
8G\J	.	16b\	.	16dd\	.	.	.	.	.	.	.	.	.
.	.	16b\JJ	.	16dd\JJ	.	.	.	.	.	.	.	.	.
!	!	!	!	!	!	!	!	!	!	!LO:LB:g=original	!	!	!
=4	=4	=4	=4	=4	=4	=4	=4	=4	=4	=4	=4	=4	=4
!LO:TX:t=P:problem=mixed beam	!	!	!	!	!	!	!	!	!	!	!	!	!
8GG/L	.	16g/LL	.	16b/LL	.	8.G\	Glo-	8.g/	Glo-	8.b\	Glo-	8.g\L	8.b\L
.	.	16g/	.	16b/	.	.	.	.	.	.	.	.	.
8G\	.	16g/	.	16b/	.	.	.	.	.	.	.	.	.
.	.	16g/	.	16b/	.	16G\	-ri-	16g/	-ri-	16b\	-ri-	16g\Jk	16b\Jk
8GG/	.	16g/	.	16b/	.	4G\	-a	4g/	-a	4b\	-a	4g\	4b\
*	*	*	*	*	*	*	*Xij	*	*Xij	*	*Xij	*	*
.	.	16g/	.	16b/	.	.	.	.	.	.	.	.	.
8G\	.	16g/	.	16b/	.	.	.	.	.	.	.	.	.
.	.	16g/	.	16b/	.	.	.	.	.	.	.	.	.
8GG/	.	16g/	.	16b/	.	4r	.	4r	.	4r	.	4r	4r
.	.	16g/	.	16b/	.	.	.	.	.	.	.	.	.
8G\J	.	16g/	.	16b/	.	.	.	.	.	.	.	.	.
.	.	16g/JJ	.	16b/JJ	.	.	.	.	.	.	.	.	.
*2\right	*	*	*	*Xtremolo	*	*	*	*	*	*	*	*	*
!	!	!	!	!	!	!	!	!LO:LB:g=original	!	!	!	!	!
=5	=5	=5	=5	=5	=5	=5	=5	=5	=5	=5	=5	=5	=5
*	*	*^	*	*	*	*	*	*	*	*	*	*	*
!	!LO:DY:b:t=pia.	!	!	!LO:DY:a:t=pia	!	!LO:DY:b:t=pia	!	!	!LO:TX:a:t=4	!	!LO:TX:a:t=4	!	!	!
8D\L	p	8a/	8f#\	p	8f#/L	p	0.r	.	0.r	.	0.r	.	0.r	0.r
8D\	.	4a/	4f#\	.	8a/J	.	.	.	.	.	.	.	.	.
8D\	.	.	.	.	16g/LL	.	.	.	.	.	.	.	.	.
.	.	.	.	.	16f#/	.	.	.	.	.	.	.	.	.
8D\	.	4a/	4f#\	.	16a/	.	.	.	.	.	.	.	.	.
.	.	.	.	.	16f#/JJ	.	.	.	.	.	.	.	.	.
!	!	!	!	!	!LO:TX:t=P:problem=mixed beam	!	!	!	!	!	!	!	!	!
8D\	.	.	.	.	8d/L	.	.	.	.	.	.	.	.	.
8D\J	.	8a/	8f#\	.	8cc\J	.	.	.	.	.	.	.	.	.
*	*	*v	*v	*	*	*	*	*	*	*	*	*	*	*
=6	=6	=6	=6	=6	=6	=6	=6	=6	=6	=6	=6	=6	=6
!LO:TX:t=P:problem=mixed beam	!	!	!	!	!	!	!	!	!	!	!	!	!
8GG/L	.	8b 8d/L	.	8b\L	.	.	.	.	.	.	.	.	.
8G\	.	8b 8d/	.	8dd\J	.	.	.	.	.	.	.	.	.
8GG/	.	8b 8d/	.	16dd\LL	.	.	.	.	.	.	.	.	.
.	.	.	.	16b\	.	.	.	.	.	.	.	.	.
8G\	.	8b 8d/	.	16b\	.	.	.	.	.	.	.	.	.
.	.	.	.	16g\JJ	.	.	.	.	.	.	.	.	.
8GG/	.	8b 8d/	.	4g/	.	.	.	.	.	.	.	.	.
8G\J	.	8b 8d/J	.	.	.	.	.	.	.	.	.	.	.
!	!	!	!	!LO:LB:g=original	!	!	!	!	!	!	!	!	!
=7	=7	=7	=7	=7	=7	=7	=7	=7	=7	=7	=7	=7	=7
*	*	*^	*	*	*	*	*	*	*	*	*	*	*
8D\L	.	8a/	8f#\	.	8f#/L	.	.	.	.	.	.	.	.	.
8D\	.	4a/	4f#\	.	8a/J	.	.	.	.	.	.	.	.	.
8D\	.	.	.	.	16g/LL	.	.	.	.	.	.	.	.	.
.	.	.	.	.	16f#/	.	.	.	.	.	.	.	.	.
8D\	.	4a/	4f#\	.	16a/	.	.	.	.	.	.	.	.	.
.	.	.	.	.	16f#/JJ	.	.	.	.	.	.	.	.	.
!	!	!	!	!	!LO:TX:t=P:problem=mixed beam	!	!	!	!	!	!	!	!	!
8D\	.	.	.	.	8d/L	.	.	.	.	.	.	.	.	.
8D\J	.	8a/	8f#\	.	8cc\J	.	.	.	.	.	.	.	.	.
*	*	*v	*v	*	*	*	*	*	*	*	*	*	*	*
=8	=8	=8	=8	=8	=8	=8	=8	=8	=8	=8	=8	=8	=8
!LO:TX:t=P:problem=mixed beam	!	!	!	!	!	!	!	!	!	!	!	!	!
8GG/L	.	8b 8d/L	.	8b\L	.	.	.	.	.	.	.	.	.
8G/J	.	8b 8d/	.	8dd\J	.	.	.	.	.	.	.	.	.
!LO:TX:t=P:problem=mixed beam	!	!	!	!	!	!	!	!	!	!	!	!	!
8GG/L	.	8b 8d/	.	16dd\LL	.	.	.	.	.	.	.	.	.
.	.	.	.	16b\	.	.	.	.	.	.	.	.	.
8G\	.	8b 8d/	.	16b\	.	.	.	.	.	.	.	.	.
.	.	.	.	16g\JJ	.	.	.	.	.	.	.	.	.
8GG/	.	8b 8d/	.	4g/	.	.	.	.	.	.	.	.	.
8G\J	.	8b 8d/J	.	.	.	.	.	.	.	.	.	.	.
*	*	*Xtremolo	*	*	*	*	*	*	*	*	*	*	*
!LO:LB:g=original	!	!	!	!	!	!	!	!	!	!	!	!	!
=9	=9	=9	=9	=9	=9	=9	=9	=9	=9	=9	=9	=9	=9
!	!	!	!LO:DY:a:t=for.	!	!LO:DY:a:t=for	!	!	!	!	!	!	!	!
16G'\LL	f	16g/LL	f	16g\LL	f	16G\LL	Glo-	16g\LL	Glo-	16g\LL	Glo-	4g\	4b\
16A'\	.	16a/	.	16a\	.	16A\	.	16a\	.	16a\	.	.	.
16B'\	.	16b/	.	16b\	.	16B\	.	16b\	.	16b\	.	.	.
16c'\JJ	.	16cc/JJ	.	16cc\JJ	.	16c\JJ	.	16cc\JJ	.	16cc\JJ	.	.	.
8d'\L	.	8dd\L	.	8dd\L	.	8d\	-ri-	8dd\	-ri-	8dd\	-ri-	4g\	4b\
8c#X'\	.	8cc#X\	.	8cc#X\	.	8c#X\	-a	8cc#X\	-a	8cc#X\	-a	.	.
8d'\	.	8dd\	.	8dd\	.	8d\	in	8dd\	in	8dd\	in	4r	4r
8e'\J	.	8ee\J	.	8ee\J	.	8e\	ex-	8ee\	ex-	8ee\	ex-	.	.
!	!	!	!	!	!	!LO:LB:g=original	!	!	!	!	!	!	!
=10	=10	=10	=10	=10	=10	=10	=10	=10	=10	=10	=10	=10	=10
8d'\L	.	8dd\L	.	8dd\L	.	8d\L	-cel-	8dd\L	-cel-	8dd\L	-cel-	4g\	4b\
8e'\	.	8ee\	.	8ee\	.	8e\	.	8ee\	.	8ee\	.	.	.
8d'\	.	8dd\	.	8dd\	.	8d\J	.	8dd\J	.	8dd\J	.	4r	4r
8cn'\	.	8ccn\	.	8ccn\	.	8cn\	-sis	8ccn\	-sis	8ccn\	-sis	.	.
8B'\	.	8b\	.	8b\	.	8B\	De-	8b\	De-	8b\	De-	4d/	4a\
8A'\J	.	8a\J	.	8a\J	.	8A\	-o	8a\	-o	8a\	-o	.	.
!	!	!LO:LB:g=original	!	!	!	!	!	!	!	!	!	!	!
=11	=11	=11	=11	=11	=11	=11	=11	=11	=11	=11	=11	=11	=11
*	*	*	*	*	*	*	*ij	*	*ij	*	*ij	*	*
16G\LL	.	16g\LL	.	16g\LL	.	16G\LL	Glo-	16g\LL	Glo-	16g\LL	Glo-	4g\	4b\
16A\	.	16a\	.	16a\	.	16A\	.	16a\	.	16a\	.	.	.
16B\	.	16b\	.	16b\	.	16B\	.	16b\	.	16b\	.	.	.
16c\JJ	.	16cc\JJ	.	16cc\JJ	.	16c\JJ	.	16cc\JJ	.	16cc\JJ	.	.	.
8d\L	.	8dd\L	.	8dd\L	.	8d\LL	-ri-	8dd\	-ri-	8dd\	-ri-	4g\	4b\
8c#X\	.	8cc#X\	.	8cc#X\	.	8c#X\	-a	8cc#X\	-a	8cc#X\	-a	.	.
8d\	.	8dd\	.	8dd\	.	8d\	in	8dd\	in	8dd\	in	4r	4r
8e\J	.	8ee\J	.	8ee\J	.	8e\JJ	ex-	8ee\	ex-	8ee\	ex-	.	.
!	!	!	!	!	!	!	!	!	!	!	!	!	!LO:LB:g=original
=12	=12	=12	=12	=12	=12	=12	=12	=12	=12	=12	=12	=12	=12
8d\L	.	8dd\L	.	8dd\L	.	8d\L	-cel-	8dd\L	-cel-	8dd\L	-cel-	4g\	4b\
8e\	.	8ee\	.	8ee\	.	8e\	.	8ee\	.	8ee\	.	.	.
8d\	.	8dd\	.	8dd\	.	8d\	.	8dd\	.	8dd\	.	4r	4r
8cn\	.	8ccn\	.	8cc\J	.	8cn\	-sis	8cc\	-sis	8cc\	-sis	.	.
!	!	!	!	!LO:LB:g=original	!	!	!	!	!	!	!	!	!
8B\	.	8b\	.	8b/L	.	8B\	De-	8b\	De-	8b\	De-	4d/	4a\
8A\J	.	8a\J	.	8a/J	.	8A\J	-o	8a\J	-o	8a\J	-o	.	.
*	*	*	*	*	*	*	*Xij	*	*Xij	*	*Xij	*	*
!	!	!	!	!	!	!	!	!LO:LB:g=original	!	!	!	!	!
=13	=13	=13	=13	=13	=13	=13	=13	=13	=13	=13	=13	=13	=13
*	*	*^	*	*	*	*	*	*	*	*	*	*	*
!	!LO:DY:a:t=pia.	!	!	!LO:DY:a:t=piano	!	!LO:DY:b:t=pia	!LO:TX:a:t=4	!	!LO:TX:a:t=4	!	!LO:TX:a:t=4	!	!LO:TX:a:t=4	!
8D\L	p	8a/	8f#\	p	16g/LL	p	0.r	.	0.r	.	0.r	.	0.r	0.r
.	.	.	.	.	16f#/	.	.	.	.	.	.	.	.	.
8D\	.	4a/	4f#\	.	16a/	.	.	.	.	.	.	.	.	.
.	.	.	.	.	16f#/JJ	.	.	.	.	.	.	.	.	.
!	!	!	!	!	!LO:TX:t=P:problem=mixed beam	!	!	!	!	!	!	!	!	!
8D\	.	.	.	.	8d/L	.	.	.	.	.	.	.	.	.
8D\	.	4a/	4f#\	.	8cc\J	.	.	.	.	.	.	.	.	.
8D\	.	.	.	.	4ccT\	.	.	.	.	.	.	.	.	.
8D\J	.	8a/	8f#\	.	.	.	.	.	.	.	.	.	.	.
*	*	*v	*v	*	*	*	*	*	*	*	*	*	*	*
=14	=14	=14	=14	=14	=14	=14	=14	=14	=14	=14	=14	=14	=14
!LO:TX:t=P:problem=mixed beam	!	!	!	!	!	!	!	!	!	!	!	!	!
8G\L	.	8bL 8d/	.	16b\LL	.	.	.	.	.	.	.	.	.
.	.	.	.	16dd\	.	.	.	.	.	.	.	.	.
8G\	.	8b 8d/	.	16b\	.	.	.	.	.	.	.	.	.
.	.	.	.	16g\JJ	.	.	.	.	.	.	.	.	.
8D\	.	8a 8f#/	.	16a\LL	.	.	.	.	.	.	.	.	.
.	.	.	.	16cc\	.	.	.	.	.	.	.	.	.
8D\	.	8a 8f#/	.	16a\	.	.	.	.	.	.	.	.	.
.	.	.	.	16f#\JJ	.	.	.	.	.	.	.	.	.
8G\	.	8b 8d/	.	4g/	.	.	.	.	.	.	.	.	.
8GG\J	.	8bJ 8d/	.	.	.	.	.	.	.	.	.	.	.
=15	=15	=15	=15	=15	=15	=15	=15	=15	=15	=15	=15	=15	=15
*	*	*^	*	*	*	*	*	*	*	*	*	*	*
8D\L	.	8a/	8f#\	.	16g/LL	.	.	.	.	.	.	.	.	.
.	.	.	.	.	16f#/	.	.	.	.	.	.	.	.	.
8D\	.	4a/	4f#\	.	16a/	.	.	.	.	.	.	.	.	.
.	.	.	.	.	16f#/JJ	.	.	.	.	.	.	.	.	.
!	!	!	!	!	!LO:TX:t=P:problem=mixed beam	!	!	!	!	!	!	!	!	!
8D\	.	.	.	.	8d/L	.	.	.	.	.	.	.	.	.
8D\	.	4a/	4f#\	.	8cc\J	.	.	.	.	.	.	.	.	.
8D\	.	.	.	.	4ccT\	.	.	.	.	.	.	.	.	.
8D\J	.	8a/	8f#\	.	.	.	.	.	.	.	.	.	.	.
*	*	*v	*v	*	*	*	*	*	*	*	*	*	*	*
*Xtremolo	*	*	*	*	*	*	*	*	*	*	*	*	*
!LO:LB:g=original	!	!	!	!	!	!	!	!	!	!	!	!	!
=16	=16	=16	=16	=16	=16	=16	=16	=16	=16	=16	=16	=16	=16
8G\L	.	8bL 8d/	.	16b\LL	.	.	.	.	.	.	.	.	.
.	.	.	.	16dd\	.	.	.	.	.	.	.	.	.
8G\	.	8b 8d/	.	16b\	.	.	.	.	.	.	.	.	.
.	.	.	.	16g\JJ	.	.	.	.	.	.	.	.	.
8D\	.	8a 8f#/	.	16a\LL	.	.	.	.	.	.	.	.	.
.	.	.	.	16cc\	.	.	.	.	.	.	.	.	.
8D\J	.	8a 8f#/	.	16a\	.	.	.	.	.	.	.	.	.
.	.	.	.	16f#\JJ	.	.	.	.	.	.	.	.	.
!LO:TX:t=P:problem=mixed beam	!	!	!	!	!	!	!	!	!	!	!	!	!
8G\L	.	8b 8d/	.	4g/	.	.	.	.	.	.	.	.	.
8GG/J	.	8bJ 8d/	.	.	.	.	.	.	.	.	.	.	.
!	!	!	!	!	!	!	!	!	!	!LO:PB:g=original	!	!LO:LB:g=original	!
=17	=17	=17	=17	=17	=17	=17	=17	=17	=17	=17	=17	=17	=17
*	*	*	*	*	*	*	*	*2\right	*	*2\right	*	*	*
!LO:TX:t=P:problem=mixed beam	!	!	!LO:DY:b:t=for.	!LO:TX:a:i:t=Tut&colon;	!LO:DY:b:t=for.	!	!	!	!	!	!	!	!
8GG/L	.	16b\LL	f	16dd\LL	f	2G\	Et	2b\	Et	2dd\	Et	2g\	2b\
.	.	16gg\	.	16bb\	.	.	.	.	.	.	.	.	.
8G\	.	16b\	.	16dd\	.	.	.	.	.	.	.	.	.
.	.	16gg\JJ	.	16bb\JJ	.	.	.	.	.	.	.	.	.
8GG/	.	16b\LL	.	16dd\LL	.	.	.	.	.	.	.	.	.
.	.	16gg\	.	16bb\	.	.	.	.	.	.	.	.	.
8G\	.	16b\	.	16dd\	.	.	.	.	.	.	.	.	.
.	.	16gg\JJ	.	16bb\JJ	.	.	.	.	.	.	.	.	.
8GG/	.	16b\LL	.	16dd\LL	.	4G\	in	4b\	in	4dd\	in	4g\	4b\
.	.	16gg\	.	16bb\	.	.	.	.	.	.	.	.	.
8G\J	.	16b\	.	16dd\	.	.	.	.	.	.	.	.	.
.	.	16gg\JJ	.	16bb\JJ	.	.	.	.	.	.	.	.	.
=18	=18	=18	=18	=18	=18	=18	=18	=18	=18	=18	=18	=18	=18
!LO:TX:t=P:problem=mixed beam	!	!	!	!	!	!	!	!	!	!	!	!	!
8GG/L	.	16b\LL	.	16dd\LL	.	2G\	ter-	2b\	ter-	2dd\	Ter-	2g\	2b\
.	.	16gg\	.	16bb\	.	.	.	.	.	.	.	.	.
8G\J	.	16b\	.	16dd\	.	.	.	.	.	.	.	.	.
.	.	16gg\JJ	.	16bb\JJ	.	.	.	.	.	.	.	.	.
*tremolo	*	*	*	*	*	*	*	*	*	*	*	*	*
!LO:TX:t=P:problem=mixed beam	!	!	!	!	!	!	!	!	!	!	!	!	!
8GG/L	.	16b\LL	.	16dd\LL	.	.	.	.	.	.	.	.	.
.	.	16gg\	.	16bb\	.	.	.	.	.	.	.	.	.
8G\	.	16b\	.	16dd\	.	.	.	.	.	.	.	.	.
.	.	16gg\JJ	.	16bb\JJ	.	.	.	.	.	.	.	.	.
!	!	!	!	!LO:LB:g=original	!	!	!	!	!	!	!	!	!
8GG/	.	16b\LL	.	16dd\LL	.	4G\	-ra	4b\	-ra	4dd\	-ra	4g\	4b\
.	.	16gg\	.	16bb\	.	.	.	.	.	.	.	.	.
8G\J	.	16b\	.	16dd\	.	.	.	.	.	.	.	.	.
.	.	16gg\JJ	.	16bb\JJ	.	.	.	.	.	.	.	.	.
=19	=19	=19	=19	=19	=19	=19	=19	=19	=19	=19	=19	=19	=19
!LO:TX:t=P:problem=mixed beam	!	!	!	!	!	!	!	!	!	!	!	!	!
8GG/L	.	16b\LL	.	16dd\LL	.	2G\	Pax	2b\	Pax	2dd\	Pax	2g\	2b\
.	.	16gg\	.	16bb\	.	.	.	.	.	.	.	.	.
8G\	.	16b\	.	16dd\	.	.	.	.	.	.	.	.	.
.	.	16gg\JJ	.	16bb\JJ	.	.	.	.	.	.	.	.	.
8GG/	.	16b\LL	.	16dd\LL	.	.	.	.	.	.	.	.	.
.	.	16gg\	.	16bb\	.	.	.	.	.	.	.	.	.
8G\	.	16b\	.	16dd\	.	.	.	.	.	.	.	.	.
.	.	16gg\JJ	.	16bb\JJ	.	.	.	.	.	.	.	.	.
!	!	!LO:LB:g=original	!	!	!	!	!	!	!	!	!	!	!
8GG/	.	16b\LL	.	16dd\LL	.	4G\	ho-	4b\	ho-	4dd\	ho-	4g\	4b\
.	.	16gg\	.	16bb\	.	.	.	.	.	.	.	.	.
8G\J	.	16b\	.	16dd\	.	.	.	.	.	.	.	.	.
.	.	16gg\JJ	.	16bb\JJ	.	.	.	.	.	.	.	.	.
=20	=20	=20	=20	=20	=20	=20	=20	=20	=20	=20	=20	=20	=20
!LO:TX:t=P:problem=mixed beam	!	!	!	!	!	!	!	!	!	!	!	!	!
8GG/L	.	16b\LL	.	16dd\LL	.	8.G\	-mi-	8.b\	-mi-	8.dd\	-mi-	8.g\L	8.b\L
.	.	16gg\	.	16bb\	.	.	.	.	.	.	.	.	.
8G\	.	16b\	.	16dd\	.	.	.	.	.	.	.	.	.
.	.	16gg\JJ	.	16bb\JJ	.	16G\	-ni-	16b\	-ni-	16dd\	-ni-	16g\Jk	16b\Jk
8GG/	.	16b\LL	.	16dd\LL	.	4G\	-bus	4b\	-bus	4dd\	-bus	4g\	4b\
.	.	16gg\	.	16bb\	.	.	.	.	.	.	.	.	.
8G\	.	16b\	.	16dd\	.	.	.	.	.	.	.	.	.
.	.	16gg\JJ	.	16bb\JJ	.	.	.	.	.	.	.	.	.
8GG/	.	16b\LL	.	16dd\LL	.	4r	.	4r	.	4r	.	4r	4r
.	.	16gg\	.	16bb\	.	.	.	.	.	.	.	.	.
8G\J	.	16b\	.	16dd\	.	.	.	.	.	.	.	.	.
.	.	16gg\JJ	.	16bb\JJ	.	.	.	.	.	.	.	.	.
!	!	!	!	!	!	!LO:LB:g=original	!	!	!	!	!	!	!
=21	=21	=21	=21	=21	=21	=21	=21	=21	=21	=21	=21	=21	=21
*	*	*	*	*	*	*2\right	*	*	*	*	*	*	*
!LO:TX:t=P:problem=mixed beam	!	!	!	!	!	!	!	!	!	!	!	!	!
8D\L	.	16a\LL	.	16dd\LL	.	2d\	Et	2a\	Et	2ff#\	Et	2d/	2a\
.	.	16ff#\	.	16aa\	.	.	.	.	.	.	.	.	.
8d\	.	16a\	.	16dd\	.	.	.	.	.	.	.	.	.
.	.	16ff#\JJ	.	16aa\JJ	.	.	.	.	.	.	.	.	.
8D\	.	16a\LL	.	16dd\LL	.	.	.	.	.	.	.	.	.
.	.	16ff#\	.	16aa\	.	.	.	.	.	.	.	.	.
8d\	.	16a\	.	16dd\	.	.	.	.	.	.	.	.	.
.	.	16ff#\JJ	.	16aa\JJ	.	.	.	.	.	.	.	.	.
8D\	.	16a\LL	.	16dd\LL	.	4d\	in	4a\	in	4ff#\	in	4d/	4a\
.	.	16ff#\	.	16aa\	.	.	.	.	.	.	.	.	.
8d\J	.	16a\	.	16dd\	.	.	.	.	.	.	.	.	.
.	.	16ff#\JJ	.	16aa\JJ	.	.	.	.	.	.	.	.	.
=22	=22	=22	=22	=22	=22	=22	=22	=22	=22	=22	=22	=22	=22
!LO:TX:t=P:problem=mixed beam	!	!	!	!	!	!	!	!	!	!	!	!	!
8D\L	.	16a\LL	.	16dd\LL	.	2d\	ter-	2a\	ter-	2ff#\	ter-	2d/	2a\
.	.	16ff#\	.	16aa\	.	.	.	.	.	.	.	.	.
8d\	.	16a\	.	16dd\	.	.	.	.	.	.	.	.	.
.	.	16ff#\JJ	.	16aa\JJ	.	.	.	.	.	.	.	.	.
8D\	.	16a\LL	.	16dd\LL	.	.	.	.	.	.	.	.	.
.	.	16ff#\	.	16aa\	.	.	.	.	.	.	.	.	.
8d\	.	16a\	.	16dd\	.	.	.	.	.	.	.	.	.
.	.	16ff#\JJ	.	16aa\JJ	.	.	.	.	.	.	.	.	.
8D\	.	16a\LL	.	16dd\LL	.	4d\	-ra	4a\	-ra	4ff#\	-ra	4d/	4a\
.	.	16ff#\	.	16aa\	.	.	.	.	.	.	.	.	.
8d\J	.	16a\	.	16dd\	.	.	.	.	.	.	.	.	.
.	.	16ff#\JJ	.	16aa\JJ	.	.	.	.	.	.	.	.	.
=23	=23	=23	=23	=23	=23	=23	=23	=23	=23	=23	=23	=23	=23
!LO:TX:t=P:problem=mixed beam	!	!	!	!	!	!	!	!	!	!	!	!	!
8D\L	.	16a\LL	.	16dd\LL	.	2d\	Pax	2a\	Pax	2ff#\	Pax	2d/	2a\
.	.	16ff#\	.	16aa\	.	.	.	.	.	.	.	.	.
8d\	.	16a\	.	16dd\	.	.	.	.	.	.	.	.	.
.	.	16ff#\JJ	.	16aa\JJ	.	.	.	.	.	.	.	.	.
!	!	!	!	!LO:LB:g=original	!	!	!	!	!	!	!	!	!
8D\	.	16a\LL	.	16dd\LL	.	.	.	.	.	.	.	.	.
.	.	16ff#\	.	16aa\	.	.	.	.	.	.	.	.	.
8d\	.	16a\	.	16dd\	.	.	.	.	.	.	.	.	.
.	.	16ff#\JJ	.	16aa\JJ	.	.	.	.	.	.	.	.	.
8D\	.	16a\LL	.	16dd\LL	.	4d\	ho-	4a\	ho-	4ff#\	ho-	4d/	4a\
.	.	16ff#\	.	16aa\	.	.	.	.	.	.	.	.	.
8d\J	.	16a\	.	16dd\	.	.	.	.	.	.	.	.	.
.	.	16ff#\JJ	.	16aa\JJ	.	.	.	.	.	.	.	.	.
!LO:LB:g=original	!	!	!	!	!	!	!	!	!	!	!	!	!
=24	=24	=24	=24	=24	=24	=24	=24	=24	=24	=24	=24	=24	=24
!LO:TX:t=P:problem=mixed beam	!	!	!	!	!	!	!	!	!	!	!	!	!
8D\L	.	16a\LL	.	16dd\LL	.	8.d\	-mi-	8.a\	-mi-	8.ff#\	-mi-	8.d/L	8.a\L
.	.	16ff#\	.	16aa\	.	.	.	.	.	.	.	.	.
8d\	.	16a\	.	16dd\	.	.	.	.	.	.	.	.	.
.	.	16ff#\JJ	.	16aa\JJ	.	16d\	-ni-	16a\	-ni-	16ff#\	-ni-	16d/Jk	16a\Jk
8D\	.	16a\LL	.	16dd\LL	.	4d\	-bus	4a\	-bus	4ff#\	-bus	4d/	4a\
.	.	16ff#\	.	16aa\	.	.	.	.	.	.	.	.	.
8d\	.	16a\	.	16dd\	.	.	.	.	.	.	.	.	.
.	.	16ff#\JJ	.	16aa\JJ	.	.	.	.	.	.	.	.	.
8D\	.	16a\LL	.	16dd\LL	.	4r	.	4r	.	4r	.	4r	4r
.	.	16ff#\	.	16aa\	.	.	.	.	.	.	.	.	.
8d\J	.	16a\	.	16dd\	.	.	.	.	.	.	.	.	.
.	.	16ff#\JJ	.	16aa\JJ	.	.	.	.	.	.	.	.	.
!	!	!	!	!	!	!	!	!	!	!LO:LB:g=original	!	!	!
=25	=25	=25	=25	=25	=25	=25	=25	=25	=25	=25	=25	=25	=25
!LO:TX:t=P:problem=mixed beam	!	!	!	!	!	!	!	!	!	!	!	!	!
8GG/L	.	16b\LL	.	16dd\LL	.	4r	.	4r	.	4r	.	4r	4r
.	.	16gg\	.	16bb\	.	.	.	.	.	.	.	.	.
8G\	.	16b\	.	16dd\	.	.	.	.	.	.	.	.	.
.	.	16gg\JJ	.	16bb\JJ	.	.	.	.	.	.	.	.	.
8GG/	.	16b\LL	.	16dd\LL	.	4G\	Bo-	4b\	Bo-	4gg\	Bo-	4g\	4b\
.	.	16gg\	.	16bb\	.	.	.	.	.	.	.	.	.
8G\	.	16b\	.	16dd\	.	.	.	.	.	.	.	.	.
.	.	16gg\JJ	.	16bb\JJ	.	.	.	.	.	.	.	.	.
8GG/	.	16b\LL	.	16dd\LL	.	4G\	-ne	4b\	-ne	4gg\	-ne	4g\	4b\
.	.	16gg\	.	16bb\	.	.	.	.	.	.	.	.	.
8G\J	.	16b\	.	16dd\	.	.	.	.	.	.	.	.	.
.	.	16gg\JJ	.	16bb\JJ	.	.	.	.	.	.	.	.	.
!	!	!	!	!	!	!	!	!	!	!	!	!	!LO:LB:g=original
=26	=26	=26	=26	=26	=26	=26	=26	=26	=26	=26	=26	=26	=26
8D\L	.	16a\LL	.	16dd\LL	.	2D\	Bo-	2a\	Bo-	2ff#\	Bo-	2d/	2a\
.	.	16ff#\	.	16aa\	.	.	.	.	.	.	.	.	.
8D\	.	16a\	.	16dd\	.	.	.	.	.	.	.	.	.
.	.	16ff#\JJ	.	16aa\JJ	.	.	.	.	.	.	.	.	.
8D\	.	16a\LL	.	16dd\LL	.	.	.	.	.	.	.	.	.
.	.	16ff#\	.	16aa\	.	.	.	.	.	.	.	.	.
8D\	.	16a\	.	16dd\	.	.	.	.	.	.	.	.	.
.	.	16ff#\JJ	.	16aa\JJ	.	.	.	.	.	.	.	.	.
8D\	.	16a\LL	.	16dd\LL	.	4D\	-ne	4a\	-ne	4ff#\	-ne	4d/	4a\
.	.	16ff#\	.	16aa\	.	.	.	.	.	.	.	.	.
8D\J	.	16a\	.	16dd\	.	.	.	.	.	.	.	.	.
.	.	16ff#\JJ	.	16aa\JJ	.	.	.	.	.	.	.	.	.
=27	=27	=27	=27	=27	=27	=27	=27	=27	=27	=27	=27	=27	=27
8G\L	.	16b\LL	.	16dd\LL	.	4G\	Vo-	4b\	Vo-	4gg\	Vo-	4g\	4b\
.	.	16gg\	.	16bb\	.	.	.	.	.	.	.	.	.
8G\	.	16b\	.	16dd\	.	.	.	.	.	.	.	.	.
.	.	16gg\JJ	.	16bb\JJ	.	.	.	.	.	.	.	.	.
8G\	.	16b\LL	.	16dd\LL	.	4G\	-lun-	4b\	-lun-	4gg\	-lun-	4g\	4b\
.	.	16gg\	.	16bb\	.	.	.	.	.	.	.	.	.
8G\J	.	16b\	.	16dd\	.	.	.	.	.	.	.	.	.
.	.	16gg\JJ	.	16bb\JJ	.	.	.	.	.	.	.	.	.
*Xtremolo	*	*	*	*	*	*	*	*	*	*	*	*	*
8D/L	.	16b\LL	.	16dd\LL	.	4D\	-ta-	4a\	-ta-	4ff#\	-ta-	4d/	4a\
.	.	16gg\	.	16aa\	.	.	.	.	.	.	.	.	.
8D/J	.	16b\	.	16dd\	.	.	.	.	.	.	.	.	.
.	.	16gg\JJ	.	16aa\JJ	.	.	.	.	.	.	.	.	.
=28	=28	=28	=28	=28	=28	=28	=28	=28	=28	=28	=28	=28	=28
4G\	.	4gg 4b 4d 4G/	.	4bb 4dd 4d 4G/	.	4G\	-tis.	4b\	-tis	4gg\	-tis	4g\	4b\
4G\	.	4gg 4b 4d 4G/	.	4gg 4b 4d 4G/	.	4r	.	4ryy	.	4r	.	4g\	4b\
4G\	.	4gg 4b 4d 4G/	.	4gg 4b 4d 4G/	.	4r	.	4ryy	.	4r	.	4g\	4b\
=29	=29	=29	=29	=29	=29	=29	=29	=29	=29	=29	=29	=29	=29
!	!	!	!	!	!	!LO:TX:a:t=1.	!	!	!	!LO:TX:a:t=1	!	!	!
2G\	.	2gg 2b 2d 2G/	.	2gg 2b 2d 2G/	.	2.r	.	2.ryy	.	2.r	.	2g\	2b\
4r	.	4r	.	4r	.	.	.	.	.	.	.	4r	4r
==	==	==	==	==	==	==	==	==	==	==	==	==	==
*-	*-	*-	*-	*-	*-	*-	*-	*-	*-	*-	*-	*-	*-
!!!system-decoration: [(g1)][(g2)][(g3)][(s8)]
!!!AIN: 4 empty 2 violn 2 vox
!!!ENC: Andrzej Kubiczek
!!!END: 2020-08-21
!!!EED: Antoni Szymański
!!!EST: 2021-11-05
